X:1
T:Title
%%score { 1 | 2 }
L:1/8
M:3/4
K:Ab
V:1 treble nm="Grand Piano"
V:2 bass 
V:1
 z2 z2[Q:1/4=100] [Ec][DB] | [CA]2 [CE]2 [EA]B | c2 e2 ec | A2 c2 BA |[M:2/4] B4 | %5
[M:1/4] [Ec][DB] |[M:3/4] [CA]2 [CE]2 [EA]B | c2 e2 [EA][FB] | c2 A2 BB |[M:2/4] [CA]4 | %10
[M:1/4] ce |[M:3/4] c2 [EA]2 FA | F2 [CE]2 [CE][CE] | [CEA]2 c2 BA |[M:2/4] B4 |[M:1/4] ce | %16
[M:3/4] c2 [EA]2 FA | F2 [CE]2 [EA][FB] | c2 A2 BB |[M:2/4] [CA]4 |] %20
V:2
 z2 z2 [A,,A,][A,,A,] | [A,,A,]2 [A,,A,]2 [C,A,][E,G,E] | [A,E]2 [A,CA]2 [A,CA][A,E] | %3
 [A,CE]2[K:bass] [A,E]2 [G,B,E][F,B,=D] |[M:2/4] [E,G,E]4 |[M:1/4] [A,,A,][A,,A,] | %6
[M:3/4] [A,,A,]2 [A,,A,]2 [C,A,][E,G,E] | [A,E]2 [A,CA]2[K:bass] [C,A,][D,A,] | %8
 [E,A,E]2 [E,A,C]2 [E,G,D][E,G,D] |[M:2/4] [A,,A,]4 |[M:1/4][K:treble] [A,EA][A,CA] | %11
[M:3/4][K:bass] [A,E]2 [C,A,]2 [D,A,D][F,A,D] | [A,D]2 [A,,A,]2 [A,,A,][A,,A,] | %13
 A,,2 [A,E]2 [G,B,E][F,B,=D] |[M:2/4] [E,G,E]4 |[M:1/4][K:treble] [A,EA][A,CA] | %16
[M:3/4][K:bass] [A,E]2 [C,A,]2 [D,A,D][F,A,D] | [A,D]2 [A,,A,]2 [C,A,][D,A,] | %18
 [E,A,E]2 [E,A,C]2 [E,G,D][E,G,D] |[M:2/4] [A,,A,]4 |] %20

